assets/img/braze_icons/server-03.svg

<svg fill="none" height="24" viewBox="0 0 24 24" width="24" xmlns="http://www.w3.org/2000/svg"><g fill="#801ed7"><path d="m7.44071 2h9.11859c.7555-.00001 1.3808-.00002 1.8925.04056.5329.04225 1.0233.1329 1.4899.35867.7266.35149 1.3298.91455 1.7305 1.6152.2573.45003.3815.93304.4603 1.46171.0757.50773.1187 1.13154.1707 1.88528l.2257 3.27358c.0418.6051.0626.9076-.0195 1.0432-.0822.1355-.1695.1974-.3246.23-.1551.0327-.4759-.1054-1.1174-.3815-.7876-.3389-1.6556-.5267-2.5674-.5267h-13c-.91182 0-1.77979.1878-2.56736.5267-.64156.2761-.96234.4142-1.1174.3815-.15511-.0326-.24245-.0945-.32462-.2301-.08214-.1355-.06128-.438-.01955-1.0431l.22577-3.27362c.05197-.75372.09498-1.37751.17067-1.88524.07882-.52867.20299-1.01168.46033-1.46171.40064-.70065 1.00388-1.26371 1.73043-1.6152.46667-.22577.95708-.31642 1.48992-.35867.51172-.04058 1.13704-.04057 1.89252-.04056z"/><path clip-rule="evenodd" d="m23 17.5037v-.0058c-.0001-.1991-.0131-.3953-.0383-.5876-.2888-2.2066-2.1763-3.9103-4.4617-3.9103h-13c-2.28538 0-4.17284 1.7036-4.4617 3.9102-.02526.193-.0383.3899-.0383.5898 0 2.4853 2.01472 4.5 4.5 4.5h13c2.4841 0 4.498-2.0127 4.5-4.4963zm-11-1.0037c-.5523 0-1 .4477-1 1s.4477 1 1 1h6c.5523 0 1-.4477 1-1s-.4477-1-1-1zm-6-.25c-.69036 0-1.25.5596-1.25 1.25s.55964 1.25 1.25 1.25 1.25-.5596 1.25-1.25-.55964-1.25-1.25-1.25z" fill-rule="evenodd"/></g></svg>

<svg width="24" height="24" viewBox="0 0 24 24" fill="none" xmlns="http://www.w3.org/2000/svg">
<path d="M7.44071 2H16.5593C17.3148 1.99999 17.9401 1.99998 18.4518 2.04056C18.9847 2.08281 19.4751 2.17346 19.9417 2.39923C20.6683 2.75072 21.2715 3.31378 21.6722 4.01443C21.9295 4.46446 22.0537 4.94747 22.1325 5.47614C22.2082 5.98387 22.2512 6.60768 22.3032 7.36142L22.5289 10.635C22.5707 11.2401 22.5915 11.5426 22.5094 11.6782C22.4272 11.8137 22.3399 11.8756 22.1848 11.9082C22.0297 11.9409 21.7089 11.8028 21.0674 11.5267C20.2798 11.1878 19.4118 11 18.5 11H5.5C4.58818 11 3.72021 11.1878 2.93264 11.5267C2.29108 11.8028 1.9703 11.9409 1.81524 11.9082C1.66013 11.8756 1.57279 11.8137 1.49062 11.6781C1.40848 11.5426 1.42934 11.2401 1.47107 10.635L1.69684 7.36138C1.74881 6.60766 1.79182 5.98387 1.86751 5.47614C1.94633 4.94747 2.0705 4.46446 2.32784 4.01443C2.72848 3.31378 3.33172 2.75072 4.05827 2.39923C4.52494 2.17346 5.01535 2.08281 5.54819 2.04056C6.05991 1.99998 6.68523 1.99999 7.44071 2Z" fill="#801ED7"/>
<path fill-rule="evenodd" clip-rule="evenodd" d="M23 17.5037L23 17.4979C22.9999 17.2988 22.9869 17.1026 22.9617 16.9103C22.6729 14.7037 20.7854 13 18.5 13H5.5C3.21462 13 1.32716 14.7036 1.0383 16.9102C1.01304 17.1032 1 17.3001 1 17.5C1 19.9853 3.01472 22 5.5 22H18.5C20.9841 22 22.998 19.9873 23 17.5037ZM12 16.5C11.4477 16.5 11 16.9477 11 17.5C11 18.0523 11.4477 18.5 12 18.5H18C18.5523 18.5 19 18.0523 19 17.5C19 16.9477 18.5523 16.5 18 16.5H12ZM6 16.25C5.30964 16.25 4.75 16.8096 4.75 17.5C4.75 18.1904 5.30964 18.75 6 18.75C6.69036 18.75 7.25 18.1904 7.25 17.5C7.25 16.8096 6.69036 16.25 6 16.25Z" fill="#801ED7"/>
</svg>
